image/icon/Markarth_red.svg

<!--version="1.0" encoding="utf-8"--><svg version="1.1" id="Layer_1" xmlns="http://www.w3.org/2000/svg" width="52" height="42" xml:space="preserve"><g id="PathID_14" transform="matrix(1, 0, 0, 1, 25.95, 21)"><path style="fill: rgb(59, 129, 247); fill-opacity: 1;" d="M14.45-15.85h.15l1.05.05h.15l1.2.45q1.2.7 1.8 1.6h.4l.85.3q1.15.5 1.8 1.7l.7 1.85.7.7q.6.9.75 2.2.05 1.1-.25 1.95l.25.95v.1q.15.85-.25 1.9v.2l-.15.15q-.4.9-1.2 1.6L22 .7q-.4.8-1.6 1.5l-.15.05-2 .5-.85.4-.15.05-1.75.05-.25-.1-1.6-.65-.1-.05-2.05 4.8Q7.5 14.85 0 19.1q-7.55-4.25-11.5-11.85l-2.05-4.85-.15.1-1.6.65-.25.1-1.7-.05-.15-.05-.85-.4h-.05l-2.05-.5-.25-.15-1.45-1.4-.4-.85-1.15-1.6-.05-.15h-.05l-.05-.2q-.4-1-.3-1.9v-.35l.1-.1.2-.55-.25-2q0-1.2.75-2.2l.65-.7.7-1.85q.65-1.15 1.8-1.7l.9-.25.35-.05q.6-.9 1.85-1.6l1.15-.4.2-.05 1-.05h.15l.15.05v-3.3l14.25 3 14.45-3v3.3l.1-.05m-1.55 2.1-1.45-.6-1.35.15-.7.7-.65 1.15-.8-.9-.3-.05H6.3q-.85.15-1.25.65-.3.3-.45.95l-.1.8H3.35q-.8 0-1.6.5l-.9.95L0-7.9l-.85-1.55-.95-.95q-.85-.5-1.5-.5l-1.05 1-.3-1.8q-.05-.55-.4-.95-.45-.55-1.3-.65h-1.3l-.3.05-.8.9-.65-1.15-.75-.7-.85-.2-.45.05-1.5.6-.55.55-.6-.45-.65-.3h-.6l-.3-.9.25.95-.7.25-1.2 1.05-.05.85-1-.1h-.5l-.4.15q-.6.2-1 .9l-.5 1.45.05.55-.5.3-.5.45q-.4.55-.4 1.15l.15 1.35.45.45-.4.65-.25.6v.05l.15.95.15.15v.2q.3.65.8 1l.35.25.05.4.25.55.9.8.05.05 1.15.3h.05l.45-.2.45.4.45.25h.05l.95.05 1.1-.4.55-.5h.2l.5-.2q.55-.35.75-.95.3-.65.2-1.2l-.2-.35.2-.45.05-.6q-.05-.7-.65-1.2l-.05-.05Q-13.9-5-14.55-5l-.3.15.1.05.45.5q.45.6.45 1.15l-.1.45-.05.1v.15l-.1.2-.4.7-.6 1.15-.9-.55h-.65l-.7.1-.6-1.05-1.3-.55.45-.9.1-.45-.15-.35-.45-.75.7-.6.4-.45v-.5l-.2-1.1 1.5-.05.25-.1.2-.35.35-1.1 1 .55.5.2.4-.2.1-.1.8-1.05.75 1.05.7.65h.15l.45-.15 1.1-.65.3 1.25.35.8h.65l1.55-.45-.35 1.55-.1 1 .55.15 1.65.15-1 1.35-.45.75.15.15V-2q.8 1.25 4.1 3.2l.8.5-.5.85-.65 1.7q0 1.15 1.05 1.95l.45.35-.05.6.9 3.8.7 2.35 1.7-6.1-.2-.55L2 6.2l.6-.65q.75-1.25.05-2.5l-.3-.7.55-.45Q6.15-.9 6.95-2.2L7-2.3 6.5-3l-1-1.4 1.7-.15q.35 0 .5-.15l-.05-1-.4-1.55 1.55.45h.65q.2 0 .4-.8l.25-1.25 1.15.65.4.15h.15l.7-.65.75-1.05.8 1 .15.15.35.2q.15 0 .5-.2l1-.55.55 1.45.3.1 1.45.05-.2 1.1v.5l.45.45.65.5-.6 1.2.15.45.4.9-1.25.55-.25.4-.3.75-.8-.2-.35-.05-.3.05-.8.6-.7-1.2-.4-.7-.15-.45-.05-.4q0-.55.4-1.2l.45-.5.1-.05-.25-.15h-.15q-.6 0-1.15.45l-.05.05q-.65.55-.7 1.2l.1.6.15.45-.2.35q-.05.45.2 1.2.25.6.75.95l.55.2.45.25.25.2.95.4.15.05.95-.05h.05l.5-.25.45-.4.45.2 1.15-.3.1-.05.9-.8.2-.55.05-.4.35-.25.9-1.15.2-1.2v-.05l-.2-.55-.4-.6.4-.5.2-1.35-.4-1.15-.5-.45-.5-.3v-.55l-.45-1.45-1-.9-.4-.15h-.5l-1 .1-.05-.85-1.2-1.05-.7-.25-.1-.05h-.6l-.65.3-.6.4-.55-.5M2.5-3 0 1l-2.5-4L0-6.95 2.5-3"/><path style="fill: rgb(0, 0, 0); fill-opacity: 1;" d="M14.35-15.8v-3.3l-14.45 3-14.25-3v3.3l-.15-.05h-.15l-1 .05-.2.05-1.15.4q-1.25.7-1.85 1.6l-.35.05-.9.25q-1.15.55-1.8 1.7l-.7 1.85-.65.7Q-24-8.2-24-7l.25 2-.2.55-.1.1V-4q-.1.9.3 1.9l.05.2h.05l.05.15 1.15 1.6.4.85 1.45 1.4.25.15 2.05.5h.05l.85.4.15.05 1.7.05.25-.1 1.6-.65.15-.1 2.05 4.85Q-7.55 14.85 0 19.1q7.5-4.25 11.5-11.85l2.05-4.8.1.05 1.6.65.25.1 1.75-.05.15-.05.85-.4 2-.5.15-.05q1.2-.7 1.6-1.5l.4-.85q.8-.7 1.2-1.6l.15-.15v-.2q.4-1.05.25-1.9v-.1l-.25-.95q.3-.85.25-1.95-.15-1.3-.75-2.2l-.7-.7-.7-1.85q-.65-1.2-1.8-1.7l-.85-.3h-.4q-.6-.9-1.8-1.6l-1.2-.45h-.15l-1.05-.05h-.15l-.1.05m-.9 2.55.6-.4.65-.3h.6l.1.05.7.25 1.2 1.05.05.85 1-.1h.5l.4.15 1 .9.45 1.45v.55l.5.3.5.45.4 1.15-.2 1.35-.4.5.4.6.2.55v.05l-.2 1.2L21-1.5l-.35.25-.05.4-.2.55-.9.8-.1.05-1.15.3-.45-.2-.45.4-.5.25h-.05l-.95.05-.15-.05-.95-.4-.25-.2-.45-.25-.55-.2Q13-.1 12.75-.7q-.25-.75-.2-1.2l.2-.35-.15-.45-.1-.6q.05-.65.7-1.2l.05-.05Q13.8-5 14.4-5h.15l.25.15-.1.05-.45.5q-.4.65-.4 1.2l.05.4.15.45.4.7.7 1.2.8-.6.3-.05.35.05.8.2.3-.75.25-.4 1.25-.55-.4-.9-.15-.45.6-1.2-.65-.5-.45-.45v-.5l.2-1.1-1.45-.05-.3-.1-.55-1.45-1 .55q-.35.2-.5.2l-.35-.2-.15-.15-.8-1-.75 1.05-.7.65h-.15l-.4-.15-1.15-.65-.25 1.25q-.2.8-.4.8H8.8l-1.55-.45.4 1.55.05 1q-.15.15-.5.15l-1.7.15 1 1.4.5.7-.05.1Q6.15-.9 2.9 1.9l-.55.45.3.7q.7 1.25-.05 2.5L2 6.2l-.55.45.2.55-1.7 6.1-.7-2.35-.9-3.8.05-.6-.45-.35Q-3.1 5.4-3.1 4.25l.65-1.7.5-.85-.8-.5Q-6.05-.75-6.85-2v-.15L-7-2.3l.45-.75 1-1.35-1.65-.15-.55-.15.1-1 .35-1.55-1.55.45h-.65l-.35-.8-.3-1.25-1.1.65-.45.15h-.15l-.7-.65-.75-1.05-.8 1.05-.1.1-.4.2-.5-.2-1-.55-.35 1.1-.2.35-.25.1-1.5.05.2 1.1v.5l-.4.45-.7.6.45.75.15.35-.1.45-.45.9 1.3.55.6 1.05.7-.1h.65l.9.55.6-1.15.4-.7.1-.2v-.15l.05-.1.1-.45q0-.55-.45-1.15l-.45-.5-.1-.05.3-.15q.65 0 1.3.45l.05.05q.6.5.65 1.2l-.05.6-.2.45.2.35q.1.55-.2 1.2-.2.6-.75.95l-.5.2h-.2l-.55.5-1.1.4-.95-.05h-.05l-.45-.25-.45-.4-.45.2h-.05l-1.15-.3-.05-.05-.9-.8-.25-.55-.05-.4-.35-.25q-.5-.35-.8-1v-.2l-.15-.15-.15-.95v-.05l.25-.6.4-.65-.45-.45-.15-1.35q0-.6.4-1.15l.5-.45.5-.3-.05-.55.5-1.45q.4-.7 1-.9l.4-.15h.5l1 .1.05-.85 1.2-1.05.7-.25-.25-.95.3.9h.6l.65.3.6.45.55-.55 1.5-.6.45-.05.85.2.75.7.65 1.15.8-.9.3-.05h1.3q.85.1 1.3.65.35.4.4.95l.3 1.8 1.05-1q.65 0 1.5.5l.95.95L0-7.9l.85-1.55.9-.95q.8-.5 1.6-.5H4.5l.1-.8q.15-.65.45-.95.4-.5 1.25-.65h1.35l.3.05.8.9.65-1.15.7-.7 1.35-.15 1.45.6.55.5m6.35-2.3 1.05.35q1.7.8 2.65 2.45l.8 1.85.45.55q1 1.35 1.15 3.2l-.15 2.05.15.75v.15q.15 1.15-.25 2.4v.7l-.5.5-1.1 1.5-.4.8Q22.9 3 21.3 3.9l-.2.1q-1.1.5-2.3.6l-.8.35h-.1l-.2.1-1.4.15-1.1-.1-.6-.15Q10.65 15.25 1.15 20.6L.8 21H-.8l-.4-.4q-9.45-5.4-13.4-15.65l-.6.15-1.1.1-1.45-.2-.15-.05h-.1l-.8-.3-2.4-.7-.05-.05-.3-.15q-1.45-.9-2.1-2.05l-.45-.8-1.05-1.45-.05-.05-.2-.4v-.1l-.15-.35q-.5-1.25-.4-2.65v-1.05l.15-.15-.15-1.85q.15-1.75 1.15-3.2l.45-.55.8-1.85q1.15-1.7 2.65-2.45l1.05-.35L-17.9-17l1.65-.65V-21h1.9L-.1-18l14.45-3h1.9v3.35l1.65.65 1.9 1.45M0-6.95-2.5-3 0 1l2.5-4L0-6.95"/></g></svg>

<?xml version="1.0" encoding="utf-8"?>
<svg version="1.1" id="Layer_1"
xmlns="http://www.w3.org/2000/svg"
xmlns:xlink="http://www.w3.org/1999/xlink"
width="52px" height="42px"
xml:space="preserve">
<g id="PathID_14" transform="matrix(1, 0, 0, 1, 25.95, 21)">
<path style="fill:#3b81f7;fill-opacity:1" d="M14.45 -15.85L14.6 -15.85L15.65 -15.8L15.8 -15.8L17 -15.35Q18.2 -14.65 18.8 -13.75L19.2 -13.75L20.05 -13.45Q21.2 -12.95 21.85 -11.75L22.55 -9.9L23.25 -9.2Q23.85 -8.3 24 -7Q24.05 -5.9 23.75 -5.05L24 -4.1L24 -4Q24.15 -3.15 23.75 -2.1L23.75 -1.9L23.6 -1.75Q23.2 -0.85 22.4 -0.15L22 0.7Q21.6 1.5 20.4 2.2L20.25 2.25L18.25 2.75L17.4 3.15L17.25 3.2L15.5 3.25L15.25 3.15L13.65 2.5L13.55 2.45L11.5 7.25Q7.5 14.85 0 19.1Q-7.55 14.85 -11.5 7.25L-13.55 2.4L-13.7 2.5L-15.3 3.15L-15.55 3.25L-17.25 3.2L-17.4 3.15L-18.25 2.75L-18.3 2.75L-20.35 2.25L-20.6 2.1L-22.05 0.7L-22.45 -0.15L-23.6 -1.75L-23.65 -1.9L-23.7 -1.9L-23.75 -2.1Q-24.15 -3.1 -24.05 -4L-24.05 -4.35L-23.95 -4.45L-23.75 -5L-24 -7Q-24 -8.2 -23.25 -9.2L-22.6 -9.9L-21.9 -11.75Q-21.25 -12.9 -20.1 -13.45L-19.2 -13.7L-18.85 -13.75Q-18.25 -14.65 -17 -15.35L-15.85 -15.75L-15.65 -15.8L-14.65 -15.85L-14.5 -15.85L-14.35 -15.8L-14.35 -19.1L-0.1 -16.1L14.35 -19.1L14.35 -15.8L14.45 -15.85M12.9 -13.75L11.45 -14.35L10.1 -14.2L9.4 -13.5L8.75 -12.35L7.95 -13.25L7.65 -13.3L6.3 -13.3Q5.45 -13.15 5.05 -12.65Q4.75 -12.35 4.6 -11.7L4.5 -10.9L3.35 -10.9Q2.55 -10.9 1.75 -10.4L0.85 -9.45L0 -7.9L-0.85 -9.45L-1.8 -10.4Q-2.65 -10.9 -3.3 -10.9L-4.35 -9.9L-4.65 -11.7Q-4.7 -12.25 -5.05 -12.65Q-5.5 -13.2 -6.35 -13.3L-7.65 -13.3L-7.95 -13.25L-8.75 -12.35L-9.4 -13.5L-10.15 -14.2L-11 -14.4L-11.45 -14.35L-12.95 -13.75L-13.5 -13.2L-14.1 -13.65L-14.75 -13.95L-15.35 -13.95L-15.65 -14.85L-15.4 -13.9L-16.1 -13.65L-17.3 -12.6L-17.35 -11.75L-18.35 -11.85L-18.85 -11.85L-19.25 -11.7Q-19.85 -11.5 -20.25 -10.8L-20.75 -9.35L-20.7 -8.8L-21.2 -8.5L-21.7 -8.05Q-22.1 -7.5 -22.1 -6.9L-21.95 -5.55L-21.5 -5.1L-21.9 -4.45L-22.15 -3.85L-22.15 -3.8L-22 -2.85L-21.85 -2.7L-21.85 -2.5Q-21.55 -1.85 -21.05 -1.5L-20.7 -1.25L-20.65 -0.85L-20.4 -0.3L-19.5 0.5L-19.45 0.55L-18.3 0.85L-18.25 0.85L-17.8 0.65L-17.35 1.05L-16.9 1.3L-16.85 1.3L-15.9 1.35L-14.8 0.95L-14.25 0.45L-14.05 0.45L-13.55 0.25Q-13 -0.1 -12.8 -0.7Q-12.5 -1.35 -12.6 -1.9L-12.8 -2.25L-12.6 -2.7L-12.55 -3.3Q-12.6 -4 -13.2 -4.5L-13.25 -4.55Q-13.9 -5 -14.55 -5L-14.85 -4.85L-14.75 -4.8L-14.3 -4.3Q-13.85 -3.7 -13.85 -3.15L-13.95 -2.7L-14 -2.6L-14 -2.45L-14.1 -2.25L-14.5 -1.55L-15.1 -0.4L-16 -0.95L-16.65 -0.95L-17.35 -0.85L-17.95 -1.9L-19.25 -2.45L-18.8 -3.35L-18.7 -3.8L-18.85 -4.15L-19.3 -4.9L-18.6 -5.5L-18.2 -5.95L-18.2 -6.45L-18.4 -7.55L-16.9 -7.6L-16.65 -7.7L-16.45 -8.05L-16.1 -9.15L-15.1 -8.6L-14.6 -8.4L-14.2 -8.6L-14.1 -8.7L-13.3 -9.75L-12.55 -8.7L-11.85 -8.05L-11.7 -8.05L-11.25 -8.2L-10.15 -8.85L-9.85 -7.6L-9.5 -6.8L-9 -6.8L-8.85 -6.8L-7.3 -7.25L-7.65 -5.7L-7.75 -4.7L-7.2 -4.55L-5.55 -4.4L-6.55 -3.05L-7 -2.3L-6.85 -2.15L-6.85 -2Q-6.05 -0.75 -2.75 1.2L-1.95 1.7L-2.45 2.55L-3.1 4.25Q-3.1 5.4 -2.05 6.2L-1.6 6.55L-1.65 7.15L-0.75 10.95L-0.05 13.3L1.65 7.2L1.45 6.65L2 6.2L2.6 5.55Q3.35 4.3 2.65 3.05L2.35 2.35L2.9 1.9Q6.15 -0.9 6.95 -2.2L7 -2.3L6.5 -3L5.5 -4.4L7.2 -4.55Q7.55 -4.55 7.7 -4.7L7.65 -5.7L7.25 -7.25L8.8 -6.8L9 -6.8L9.45 -6.8Q9.65 -6.8 9.85 -7.6L10.1 -8.85L11.25 -8.2L11.65 -8.05L11.8 -8.05L12.5 -8.7L13.25 -9.75L14.05 -8.75L14.2 -8.6L14.55 -8.4Q14.7 -8.4 15.05 -8.6L16.05 -9.15L16.6 -7.7L16.9 -7.6L18.35 -7.55L18.15 -6.45L18.15 -5.95L18.6 -5.5L19.25 -5L18.65 -3.8L18.8 -3.35L19.2 -2.45L17.95 -1.9L17.7 -1.5L17.4 -0.75L16.6 -0.95L16.25 -1L15.95 -0.95L15.15 -0.35L14.45 -1.55L14.05 -2.25L13.9 -2.7L13.85 -3.1Q13.85 -3.65 14.25 -4.3L14.7 -4.8L14.8 -4.85L14.55 -5L14.4 -5Q13.8 -5 13.25 -4.55L13.2 -4.5Q12.55 -3.95 12.5 -3.3L12.6 -2.7L12.75 -2.25L12.55 -1.9Q12.5 -1.45 12.75 -0.7Q13 -0.1 13.5 0.25L14.05 0.45L14.5 0.7L14.75 0.9L15.7 1.3L15.85 1.35L16.8 1.3L16.85 1.3L17.35 1.05L17.8 0.65L18.25 0.85L19.4 0.55L19.5 0.5L20.4 -0.3L20.6 -0.85L20.65 -1.25L21 -1.5L21.9 -2.65L22.1 -3.85L22.1 -3.9L21.9 -4.45L21.5 -5.05L21.9 -5.55L22.1 -6.9L21.7 -8.05L21.2 -8.5L20.7 -8.8L20.7 -9.35L20.25 -10.8L19.25 -11.7L18.85 -11.85L18.35 -11.85L17.35 -11.75L17.3 -12.6L16.1 -13.65L15.4 -13.9L15.3 -13.95L14.7 -13.95L14.05 -13.65L13.45 -13.25L12.9 -13.75M2.5 -3L0 1L-2.5 -3L0 -6.95L2.5 -3" />
<path style="fill:#000000;fill-opacity:1" d="M14.35 -15.8L14.35 -19.1L-0.1 -16.1L-14.35 -19.1L-14.35 -15.8L-14.5 -15.85L-14.65 -15.85L-15.65 -15.8L-15.85 -15.75L-17 -15.35Q-18.25 -14.65 -18.85 -13.75L-19.2 -13.7L-20.1 -13.45Q-21.25 -12.9 -21.9 -11.75L-22.6 -9.9L-23.25 -9.2Q-24 -8.2 -24 -7L-23.75 -5L-23.95 -4.45L-24.05 -4.35L-24.05 -4Q-24.15 -3.1 -23.75 -2.1L-23.7 -1.9L-23.65 -1.9L-23.6 -1.75L-22.45 -0.15L-22.05 0.7L-20.6 2.1L-20.35 2.25L-18.3 2.75L-18.25 2.75L-17.4 3.15L-17.25 3.2L-15.55 3.25L-15.3 3.15L-13.7 2.5L-13.55 2.4L-11.5 7.25Q-7.55 14.85 0 19.1Q7.5 14.85 11.5 7.25L13.55 2.45L13.65 2.5L15.25 3.15L15.5 3.25L17.25 3.2L17.4 3.15L18.25 2.75L20.25 2.25L20.4 2.2Q21.6 1.5 22 0.7L22.4 -0.15Q23.2 -0.85 23.6 -1.75L23.75 -1.9L23.75 -2.1Q24.15 -3.15 24 -4L24 -4.1L23.75 -5.05Q24.05 -5.9 24 -7Q23.85 -8.3 23.25 -9.2L22.55 -9.9L21.85 -11.75Q21.2 -12.95 20.05 -13.45L19.2 -13.75L18.8 -13.75Q18.2 -14.65 17 -15.35L15.8 -15.8L15.65 -15.8L14.6 -15.85L14.45 -15.85L14.35 -15.8M13.45 -13.25L14.05 -13.65L14.7 -13.95L15.3 -13.95L15.4 -13.9L16.1 -13.65L17.3 -12.6L17.35 -11.75L18.35 -11.85L18.85 -11.85L19.25 -11.7L20.25 -10.8L20.7 -9.35L20.7 -8.8L21.2 -8.5L21.7 -8.05L22.1 -6.9L21.9 -5.55L21.5 -5.05L21.9 -4.45L22.1 -3.9L22.1 -3.85L21.9 -2.65L21 -1.5L20.65 -1.25L20.6 -0.85L20.4 -0.3L19.5 0.5L19.4 0.55L18.25 0.85L17.8 0.65L17.35 1.05L16.85 1.3L16.8 1.3L15.85 1.35L15.7 1.3L14.75 0.9L14.5 0.7L14.05 0.45L13.5 0.25Q13 -0.1 12.75 -0.7Q12.5 -1.45 12.55 -1.9L12.75 -2.25L12.6 -2.7L12.5 -3.3Q12.55 -3.95 13.2 -4.5L13.25 -4.55Q13.8 -5 14.4 -5L14.55 -5L14.8 -4.85L14.7 -4.8L14.25 -4.3Q13.85 -3.65 13.85 -3.1L13.9 -2.7L14.05 -2.25L14.45 -1.55L15.15 -0.35L15.95 -0.95L16.25 -1L16.6 -0.95L17.4 -0.75L17.7 -1.5L17.95 -1.9L19.2 -2.45L18.8 -3.35L18.65 -3.8L19.25 -5L18.6 -5.5L18.15 -5.95L18.15 -6.45L18.35 -7.55L16.9 -7.6L16.6 -7.7L16.05 -9.15L15.05 -8.6Q14.7 -8.4 14.55 -8.4L14.2 -8.6L14.05 -8.75L13.25 -9.75L12.5 -8.7L11.8 -8.05L11.65 -8.05L11.25 -8.2L10.1 -8.85L9.85 -7.6Q9.65 -6.8 9.45 -6.8L9 -6.8L8.8 -6.8L7.25 -7.25L7.65 -5.7L7.7 -4.7Q7.55 -4.55 7.2 -4.55L5.5 -4.4L6.5 -3L7 -2.3L6.95 -2.2Q6.15 -0.9 2.9 1.9L2.35 2.35L2.65 3.05Q3.35 4.3 2.6 5.55L2 6.2L1.45 6.65L1.65 7.2L-0.05 13.3L-0.75 10.95L-1.65 7.15L-1.6 6.55L-2.05 6.2Q-3.1 5.4 -3.1 4.25L-2.45 2.55L-1.95 1.7L-2.75 1.2Q-6.05 -0.75 -6.85 -2L-6.85 -2.15L-7 -2.3L-6.55 -3.05L-5.55 -4.4L-7.2 -4.55L-7.75 -4.7L-7.65 -5.7L-7.3 -7.25L-8.85 -6.8L-9 -6.8L-9.5 -6.8L-9.85 -7.6L-10.15 -8.85L-11.25 -8.2L-11.7 -8.05L-11.85 -8.05L-12.55 -8.7L-13.3 -9.75L-14.1 -8.7L-14.2 -8.6L-14.6 -8.4L-15.1 -8.6L-16.1 -9.15L-16.45 -8.05L-16.65 -7.7L-16.9 -7.6L-18.4 -7.55L-18.2 -6.45L-18.2 -5.95L-18.6 -5.5L-19.3 -4.9L-18.85 -4.15L-18.7 -3.8L-18.8 -3.35L-19.25 -2.45L-17.95 -1.9L-17.35 -0.85L-16.65 -0.95L-16 -0.95L-15.1 -0.4L-14.5 -1.55L-14.1 -2.25L-14 -2.45L-14 -2.6L-13.95 -2.7L-13.85 -3.15Q-13.85 -3.7 -14.3 -4.3L-14.75 -4.8L-14.85 -4.85L-14.55 -5Q-13.9 -5 -13.25 -4.55L-13.2 -4.5Q-12.6 -4 -12.55 -3.3L-12.6 -2.7L-12.8 -2.25L-12.6 -1.9Q-12.5 -1.35 -12.8 -0.7Q-13 -0.1 -13.55 0.25L-14.05 0.45L-14.25 0.45L-14.8 0.95L-15.9 1.35L-16.85 1.3L-16.9 1.3L-17.35 1.05L-17.8 0.65L-18.25 0.85L-18.3 0.85L-19.45 0.55L-19.5 0.5L-20.4 -0.3L-20.65 -0.85L-20.7 -1.25L-21.05 -1.5Q-21.55 -1.85 -21.85 -2.5L-21.85 -2.7L-22 -2.85L-22.15 -3.8L-22.15 -3.85L-21.9 -4.45L-21.5 -5.1L-21.95 -5.55L-22.1 -6.9Q-22.1 -7.5 -21.7 -8.05L-21.2 -8.5L-20.7 -8.8L-20.75 -9.35L-20.25 -10.8Q-19.85 -11.5 -19.25 -11.7L-18.85 -11.85L-18.35 -11.85L-17.35 -11.75L-17.3 -12.6L-16.1 -13.65L-15.4 -13.9L-15.65 -14.85L-15.35 -13.95L-14.75 -13.95L-14.1 -13.65L-13.5 -13.2L-12.95 -13.75L-11.45 -14.35L-11 -14.4L-10.15 -14.2L-9.4 -13.5L-8.75 -12.35L-7.95 -13.25L-7.65 -13.3L-6.35 -13.3Q-5.5 -13.2 -5.05 -12.65Q-4.7 -12.25 -4.65 -11.7L-4.35 -9.9L-3.3 -10.9Q-2.65 -10.9 -1.8 -10.4L-0.85 -9.45L0 -7.9L0.85 -9.45L1.75 -10.4Q2.55 -10.9 3.35 -10.9L4.5 -10.9L4.6 -11.7Q4.75 -12.35 5.05 -12.65Q5.45 -13.15 6.3 -13.3L7.65 -13.3L7.95 -13.25L8.75 -12.35L9.4 -13.5L10.1 -14.2L11.45 -14.35L12.9 -13.75L13.45 -13.25M19.8 -15.55L20.85 -15.2Q22.55 -14.4 23.5 -12.75L24.3 -10.9L24.75 -10.35Q25.75 -9 25.9 -7.15L25.75 -5.1L25.9 -4.35L25.9 -4.2Q26.05 -3.05 25.65 -1.8L25.65 -1.1L25.15 -0.6L24.05 0.9L23.65 1.7Q22.9 3 21.3 3.9L21.1 4Q20 4.5 18.8 4.6L18 4.95L17.9 4.95L17.7 5.05L16.3 5.2L15.2 5.1L14.6 4.95Q10.65 15.25 1.15 20.6L0.8 21L-0.8 21L-1.2 20.6Q-10.65 15.2 -14.6 4.95L-15.2 5.1L-16.3 5.2L-17.75 5L-17.9 4.95L-18 4.95L-18.8 4.65L-21.2 3.95L-21.25 3.9L-21.55 3.75Q-23 2.85 -23.65 1.7L-24.1 0.9L-25.15 -0.55L-25.2 -0.6L-25.4 -1L-25.4 -1.1L-25.55 -1.45Q-26.05 -2.7 -25.95 -4.1L-25.95 -5.15L-25.8 -5.3L-25.95 -7.15Q-25.8 -8.9 -24.8 -10.35L-24.35 -10.9L-23.55 -12.75Q-22.4 -14.45 -20.9 -15.2L-19.85 -15.55L-17.9 -17L-16.25 -17.65L-16.25 -21L-14.35 -21L-0.1 -18L14.35 -21L16.25 -21L16.25 -17.65L17.9 -17L19.8 -15.55M0 -6.95L-2.5 -3L0 1L2.5 -3L0 -6.95" />
</g>
</svg>
